!!! OTL: Literature91
!!! Chapter: 5
!!! Section: III
!!! Page: 365
!!! Mode: 
!!! Encoder: DJB
**kern
*staff1
*I"Piano
=1-
*clefG2
*k[b-e-a-d-]
*A-:
*M4/4
2e-/
8f/L
8e-/
8a-/
8b-/J
=2
2cc\
2ee-\
=3
4dd-\
4cc\
4b-\
8.cc\L
16b-\Jk
=4
2e-/
[2f/
=5
2f/]
8g-/L
8f/
8b-/
8cc/J
=6
4dd-\
4cc\
4b-\
4cc\
=7
4.a-/
32dn/LLL
32e-/
32f/
32e-/JJJ
4.cc\
8b-\
=8
2b-\
4a-/
4r
==
*-
